X: 10
T:Bourree (3 time)
M:3/8
L:1/16
R:3/8 Bourree
Z:Steve Mansfield
K:D
e2a2g2 | a2 ef g2 | eagfed | c2 ABcd | e2a2g2 | a2 ef g2 | eagfec|
|1 d6 :|2 d4 A/B/c/d/ |: d2e2f2 | d2c2d2 | e2 gfgf | e3 cAc|
| d2e2f2 | d2c2d2 | e2 gfgf |1 e3c Ac :|2 e6 ||

